X: 20713
M: 2/4
L: 1/8
K: G
[|\
e2g2 | d2g2 | e2(dc) | B2(dB) | A2d2 | B2(BG) | A2d2 | G2z2 |\
e2g2 | d2g2 | (fe)({e}dc) | B2(dB) | A2d2 | B2(BG) | A2d2 | G2z2 |]


